X:1
T:Title
%%score { ( 1 6 ) | ( 2 3 4 5 ) }
L:1/8
Q:1/4=132
M:6/4
K:Db
V:1 treble nm="Grand Piano"
V:6 treble 
V:2 bass 
V:3 bass 
V:4 bass 
V:5 bass 
V:1
 A4 A2 B2 A2 F2 | D4 E2 F6 | [CE]4 F2 G2 F2 E2 | F4 G2 [DFA]6 | [DGB]4 G2 d2 c2 B2 | %5
w: B.~D.~Ackley * * * *|||||
 B2 A2 F2 E4 ._F2 | [DF]2 A2 G2 [DF]4 [CE]2 | [D,D]4- [D,-B,D-]2 [D,A,D]6 | d4 d2 d2 c2 B2 | %9
w: ||||
 c4 _c2 .[G=c]6 | e4 e2 e2 d2 c2 | [GB]4 A2 A6 | B4 G2 d2 c2 B2 | B2 A2 F2 [=G,D]4- [G,D_F]2 | %14
w: |||||
 A,2- [A,-A]2 [A,-G]2 [A,DF]4 [CE]2 |[M:10/4][K:bass] [D,D]4- [D,-B,D-]2 [D,A,D]4 z2 z8 |] %16
w: ||
V:2
 D12 | z4 C2 z6 | z4 D2 E2 D2 C2 | D4 E2 D,6 | z4 D2- D2- [A,D-]4 | D2- [F,D-]2 [A,D]2 B,,4 z _F | %6
 z2[K:treble] F2 E2[K:bass] z4 G,2 | z4 G,2 .F,6 | [D,A,]12 | A,12 | G6 G6 | z4[K:treble] F2 F6 | %12
 z4 D2- D6- | D6 z6 | z2[K:treble] F2 E2[K:bass] z4 G,2 |[M:10/4] z4 G,2 F,4 z2 z8 |] %16
V:3
 z6 z4 A,2- | A,4 z2 z6 | [A,,A,]12 | [D,A,]6 z6 | G,6- G,4 G,2- | G,6 z6 | %6
 A,,6[K:treble][K:bass] A,,6 | D,,12 | x12 | E,4 =D,2 .E,6 | [A,,C]12 | [D,D]12[K:treble] | %12
 [DG]4 B,2- B,2 .A,4 | z2 F,2 A,2 B,,4 z _F | A,,6[K:treble][K:bass] A,,6 | %15
[M:10/4] D,,8- D,,2 z2 z8 |] %16
V:4
 [D,F,]6 G,2 .F,4 | F,4 A,2- [D,A,D]6 | x12 | x12 | z4 B,2- B,2 z2 z2 | D,6 z4 =A,,2 | %6
 x2[K:treble] x4[K:bass] x6 | x12 | x12 | x12 | x12 | x4[K:treble] x8 | G,6- G,4 G,2- | G,6 z6 | %14
 x2[K:treble] x4[K:bass] x6 |[M:10/4] x20 |] %16
V:5
 z6 D,6 | x12 | x12 | x12 | x12 | x12 | x2[K:treble] x4[K:bass] x6 | x12 | x12 | x12 | x12 | %11
 x4[K:treble] x8 | x12 | D,6 z4 =A,,2 | x2[K:treble] x4[K:bass] x6 |[M:10/4] x20 |] %16
V:6
 x12 | x12 | x12 | x12 | x12 | z6 [=G,D]6 | A,12 | .[F,A,]6 z6 | F12 | G6 z6 | x12 | x12 | x12 | %13
 z6 .E6 | .[DF]6 z6 |[M:10/4][K:bass] [F,A,]4 z4 z4 z8 |] %16

